X:0797
T:The Jolly Ringer's.
C:By Dibdin.
M:2/4
L:1/8
Q:1/4=100
I: ||
Z:Jack Campin * www.campin.me.uk * 2009
K:G
g |fedc |BAGb |   agfe|d2 G\
d'|c'bag|fedc |   cBce|d2 G
g |fgab |c'bag|   fgab|a2 d\
a |bgbd'|gegb |   eceg|c'2c'\
a |bgbd'|b2g2 |{g}fg/a/ d2|
zgfe|dcBA|Gefg|ABcd|Gfee|cAdB|Ggfe|dcBA|G2z
b|c'2c'2|a3a|d'2d'2|b2g2|a2bc'|d2f2|g4|G2z2|]

